X: 59
T: 55. HIGH LEVEL (HORNPIPE)
B: Sam Bayard, "Hill Country Tunes" 1944 #55
S: Played by John Kubina, (near) Davistown, PA, Sept 3 1943.
S: Learned from traditional players in and around Pittsburgh.
R: hornpipe, reel
M: 4/4
L: 1/8
Z: 2010 John Chambers <jc:trillian.mit.edu>
N: A version of this tune appears as "President Garfield's Hornpipe" in One Thousand, p.101.
N: A different meody under the name of "High Level" is in Kerr, No.394, and DeVille, No.7.
K: Bb
"a."dc |\
BFDF BFDF | BABc d^/cd=e | fcAc fcAc | "b."fgag fedc |
BFDF BFDF | BABc d^/cd=e | .f2ag fedc | .B2.d2 .B2 || HbHa |
gecA FAcz/g/ | fdBF DFBd | eAgf eAgf | dBgf dfba |
gecA FAcz/g/ | fdBF DFBd | A2ag fedc | B2d2 [B2D2] |]
P: Var:
"a."Ac || "b."f=e |]

%%sep 2 1 500
%%sep 1 1 500

